X: 1
T:Bagatelle No.25 in A, WoO.59
C:Ludwig van Beethoven
V:1
V:2
M:3/8
L:1/16
Q:1/8=140
K:Am
V:1
e^deB=dc|A2 z CEA|B2 z EcB|[1A2 z2:|[2A2z Bcd|
V:2
z6|A,,E,A, z z2|E,,E,^G, z z2|[1A,,E,A, z z2:|